X:23
T:Mr. John Angus' Reel - of Calcutta
T:Johnston's Reel - a strathspey
R:strathspey
C:William Marshall
S:1822 Collection p37
B:Athole (as "John Angus")
N:dotted rhythm comes from Marshall, 1781
Z:Paul Stewart Cranford (P.S.C.), <http://www.cranfordpub.com>
L:1/8
Q:244
M:C
K:E
E>BG>B E>Be>g|b<gf>e f>cc>e|E>BG>B E>Be>g|b>gf>g e/e/e e2:|
||e/f/g/a/ b>e g>eb>e|dB a>Bf>B|e/f/g/a/ b>e g>eb>e|c>ag>f e/e/e e2|
e/f/g/a/ b>e g>eb>e|dB a>Bf>B|e>gf>a g>ba>g|f>ef>g e/e/e e2|]
